X: 4435
T: Bonnie Dainty Davie
R: reel
M: 4/4
K: Gmajor
|:ge|dBAB G2 G2|G2 BG dGBG|BcBA GEED|EEed e2:|
|:ef|g2 gg fgag|fd dd fgaf|efge agfd|1 egfd e/f/e:|2 egfd g2||

